X:1
T:Che soave zeffiretto
T:Wolfgang Amadeus Mozart arr. Anton Bernhard Furstenau
T:from: Le nozze di Figaro
%%score 1 2
L:1/8
Q:1/4=100
M:6/8
K:G
V:1 treble nm="Flute" snm="Fl."
V:2 treble nm="Flute" snm="Fl."
V:1
"^Allegretto"!p! g3 a3 | (bgd') (c'af) | (gbg) d2 z |!pp! (BdB) (Fcd) | (GBG) (Fcd) | %5
 (Bd!breath!B)!p! (GBd) | (ac'a) d2 z | (d'bd') g'2 z | (c'ad') (bgd') | (d'2 a) a2 z | %10
!pp! (FAd) (DFA) | (EG^c) (Ace) | (Bdf) (Adf) | !breath!e3!p! (efg) | (ad'f) (egb) | (afa) (gfe) | %16
 d2 z =c(FA) | B(DG) B(DG) | (Aea) (AEc) | (DAd) (DFA) | (GB!breath!d) (bc'^c') | ((d'3 d')bg) | %22
 (e'g'e') (d'g'd') | (c'ad') (bgd') | (d'2 a) a z2 | (EGc) (EGc) | (Bdg) (cea) | (BdB) (FAc) | %28
 B2 z2 aa | (bgd') (c'ad') | b2 z (Fcd) | (GBg) (DFA) | G(bg dBG) | !breath!b3 (bc'd') | %34
 e'3 (c'2 b) | a3 d'3 | g3 a3 | (bgd') (c'af) | (BdB) (Fcd) | (GBG) (Fcd) | (BdB) (GBG) | %41
 (Fcf) (GBg) | (FAd) (CEA) | (BdB) (Fcd) | (BdB) z aa | (bgd') (c'ad') | (g3 f2) a | %47
 .b/(d'/^c'/d'/c'/d'/) .a/(d'/c'/d'/c'/d'/) | (g3 f2) z | ((b3 b)=c'd') | e'3 (c'2 b) | (a3 d'3) | %52
!<(! !breath!b3 (bc'd')!<)! | e'3 (g'e'c') | c'3 d'3 | (g2 b) (g2 b) | d'(FA) z (FA) | %57
 z (Bd) z (Bd) | c z d (d2 e/f/) | g2 (b c'2 d') | %60
 b2 g !fermata!a!fermata!f' !fermata!a2 (c'/>b/) | g2 z4 |] %62
V:2
!pp! (BdB) (Fcd) | (GBG) (Fcd) | (BdB) (GBd) |!p! g3 a3 | (bgd') (c'af) | (gbg)!pp! d2 z | %6
 (FAd) (FAd) | (Bdg) (Bdg) | (Adf) (Gdg) | (FAd) (FAd) |!p! a3 (a2 d') | (d'^c'b) (bag) | f2 z4 | %13
!pp! (^GBd) (=G^ce) | (FAd) (GBe) | (Fdf) (EAG) | (FAd) (def) | g3 (gab) | (d'2 c') (c'ba) | %19
 (gfg) (abc') | (^a2 b) (g=a^a) | (GBd) (BdB) | (ceg) (GBg) | (Adf) (GBg) | (FAd) F (ab) | %25
 c'2 c' (c'd'e') | (d'g'b) (ac'e') | (d'bg) (def) | g(Bd) (Fcd) | (GBg) (DFA) | (GBd) z aa | %31
 (bgd') (c'ad') | b(GB dgb) | !breath!g3 (gab) | c'3 (a2 g) | f3 (cBA) | (BdB) (Fcd) | %37
 (GBG) (Fcd) | g3 a3 | (bgd') (c'af) | (gbg) d3 | (c'ad') (bgd') | d'2 a (ac'e') | (d'bg) (def) | %44
 g2 z (Fcd) | (GBG) Faa | (bgd') (c'ad') | (g3 f2) a | .b/(d'/^c'/d'/c'/d'/) .a/(d'/c'/d'/c'/d'/) | %49
 ((g3 g)ab) | =c'3 (a2 g) | f3 f3 | !breath!g3!<(! (gab)!<)! |!>(! c'3 (e'c'a)!>)! | f3 f3 | %55
 g(Bd) z (Bd) | c z d (d2 e/f/) | (g2 b) (g2 b) | d'((FA)) z ((FA)) | B2 (g a2 f) | %60
 g2 B c/ !fermata!z/ D !fermata!f2 (e/>d/) | B2 z4 |] %62

